src/bright/hiso font bright_p04-mail reversed.svg

<svg xmlns="http://www.w3.org/2000/svg" width="99" height="126" viewBox="0 0 99 126"><path fill="#000101" d="M0 36v54l54 27 27-13.5v-54l-54-27-27 13.5zm54 77.5v-49.029l24-11.82v48.99l-24 11.859zm-50.27-63.219l22.291 31.889 24.679-15.96v4.761l-14.39 9.299 14.39 19.97v6.83l-17.749-24.62-8 5.17-8.861-12.68-12.36 7.3v-4.64l10.06-5.94-10.06-14.399v-6.98z"/></svg>

<svg xmlns="http://www.w3.org/2000/svg" width="99" height="126"><path fill="#000101" d="M0 36v54l54 27 27-13.5v-54l-54-27L0 36zm54 77.5V64.471l24-11.82v48.99L54 113.5zM3.73 50.281L26.021 82.17 50.7 66.21v4.761L36.31 80.27l14.39 19.97v6.83L32.951 82.45l-8 5.17-8.861-12.68-12.36 7.3V77.6l10.06-5.94L3.73 57.261v-6.98z"/></svg>
